src/16/actions/edit-select-original.svg

<svg xmlns="http://www.w3.org/2000/svg" viewBox="0 0 16 16">
  <defs id="defs3051">
    <style type="text/css" id="current-color-scheme">
      .ColorScheme-Text {
        color:#5d656b;
      }
      .ColorScheme-Highlight {
        color:#3daee9;
      }
      </style>
  </defs>
  <path 
        style="fill:currentColor;fill-opacity:1;stroke:none"
        d="M 5 4 L 5 14 L 7 14 L 7 13 L 6 13 L 6 5 L 12 5 L 12 6 L 13 6 L 13 4 L 11 4 L 5 4 z M 11.003906 7 A 2 2 0 0 0 9.0039062 9 L 9.0039062 11 L 8.0039062 11 L 8.0039062 14 L 14.003906 14 L 14.003906 11 L 13.003906 11 L 13.003906 9 A 2 2 0 0 0 11.003906 7 z M 11.003906 8 A 1 1 0 0 1 12.003906 9 L 12.003906 11 L 10.003906 11 L 10.003906 9 A 1 1 0 0 1 11.003906 8 z "
        class="ColorScheme-Text"
        />
  <path 
        style="fill:currentColor;fill-opacity:1;stroke:none"
        d="m 2,2 0,11 3,0 0,-1 -2,0 0,-9 8,0 0,1 1,0 0,-2 z"
        class="ColorScheme-Highlight"
        />
</svg>

<svg xmlns="http://www.w3.org/2000/svg" viewBox="0 0 16 16"><path d="M5 4v10h2v-1H6V5h6v1h1V4H5zm6.004 3a2 2 0 0 0-2 2v2h-1v3h6v-3h-1V9a2 2 0 0 0-2-2zm0 1a1 1 0 0 1 1 1v2h-2V9a1 1 0 0 1 1-1z" fill="currentColor" color="#5d656b"/><path d="M2 2v11h3v-1H3V3h8v1h1V2z" fill="currentColor" color="#3daee9"/></svg>
